symbols/web/coronavirus/materialsymbolsoutlined/coronavirus_wght600grad200fill1_40px.svg

<svg xmlns="http://www.w3.org/2000/svg" height="40" width="40"><path d="M14 21.458q.625 0 1.021-.437.396-.438.396-1.021t-.396-1.021q-.396-.437-1.021-.437-.625 0-1.042.437-.416.438-.416 1.021t.416 1.021q.417.437 1.042.437Zm9.042-5.166q.583 0 1-.417.416-.417.416-1.042 0-.583-.416-1-.417-.416-1-.416-.584 0-1.021.416-.438.417-.438 1 0 .625.438 1.042.437.417 1.021.417Zm-6.042 0q.542 0 1-.417.458-.417.458-1.042 0-.583-.458-1-.458-.416-1-.416-.583 0-1 .416-.417.417-.417 1 0 .625.417 1.042.417.417 1 .417Zm0 10.291q.542 0 1-.416.458-.417.458-1 0-.625-.458-1.042-.458-.417-1-.417-.583 0-1 .417-.417.417-.417 1.042 0 .583.417 1 .417.416 1 .416Zm1.583 12.167q-.5 0-.875-.354t-.375-.896q0-.5.334-.854.333-.354.833-.396h.25v-3.417q-1.958-.25-3.75-.979t-3.208-1.937l-2.417 2.375.208.208q.25.333.292.875.042.542-.333.917-.375.333-.896.354-.521.021-.896-.396l-2-1.917q-.375-.375-.396-.937-.021-.563.354-.938.334-.291.854-.333.521-.042.938.292l.167.166 2.416-2.416q-1.25-1.459-1.979-3.209-.729-1.75-.937-3.708H3.75v.25q-.042.5-.396.833-.354.334-.854.334-.542 0-.896-.375t-.354-.875v-2.834q0-.5.354-.875t.896-.375q.5 0 .854.334.354.333.396.833v.25h3.417q.208-1.958.979-3.729.771-1.771 1.937-3.229L7.667 9.375l-.209.208q-.333.334-.875.292-.541-.042-.875-.375-.333-.333-.333-.896 0-.562.375-.937L7.667 5.75q.375-.417.937-.417.563 0 .938.375.333.334.354.875.021.542-.313.875l-.208.209 2.417 2.375Q13.25 8.875 15 8.125q1.75-.75 3.708-1V3.75h-.25q-.458-.042-.791-.396-.334-.354-.334-.896 0-.5.375-.875t.875-.375h2.834q.5 0 .875.375t.375.875q0 .542-.334.896-.333.354-.833.396h-.25v3.375q1.958.25 3.729.979 1.771.729 3.229 1.938l2.375-2.375-.166-.167q-.334-.375-.313-.896.021-.521.396-.896.333-.333.875-.333t.917.375l2 2q.375.375.354.896-.021.521-.354.854-.375.375-.875.354-.5-.021-.875-.354l-.167-.167-2.417 2.417q1.167 1.5 1.896 3.271.729 1.771.979 3.729h3.417v-.25q.042-.5.396-.833.354-.334.896-.334.5 0 .875.375t.375.875v2.834q0 .5-.375.875t-.875.375q-.542 0-.896-.334-.354-.333-.396-.833v-.25h-3.417q-.25 1.958-.958 3.729-.708 1.771-1.917 3.229l2.417 2.417.167-.208q.375-.292.875-.292t.833.333q.375.375.396.917.021.542-.354.917l-1.959 1.916q-.375.375-.937.375-.563 0-.896-.375-.333-.333-.354-.833-.021-.5.229-.833l.25-.209-2.417-2.416q-1.5 1.25-3.25 1.979-1.75.729-3.708.937v3.417h.25q.5.042.833.396.334.354.334.854 0 .542-.375.896t-.875.354ZM20 21.458q.583 0 1.021-.437.437-.438.437-1.021t-.437-1.021q-.438-.437-1.021-.437t-1.021.437q-.437.438-.437 1.021t.437 1.021q.438.437 1.021.437Zm6 0q.667 0 1.062-.437.396-.438.396-1.021t-.396-1.021q-.395-.437-1.062-.437-.583 0-1 .437-.417.438-.417 1.021T25 21.021q.417.437 1 .437Zm-2.958 5.125q.583 0 1-.416.416-.417.416-1 0-.625-.416-1.042-.417-.417-1-.417-.584 0-1.021.417-.438.417-.438 1.042 0 .583.438 1 .437.416 1.021.416Z"/></svg>

<svg xmlns="http://www.w3.org/2000/svg" height="40" width="40"><path d="M14 21.458Q14.625 21.458 15.021 21.021Q15.417 20.583 15.417 20Q15.417 19.417 15.021 18.979Q14.625 18.542 14 18.542Q13.375 18.542 12.958 18.979Q12.542 19.417 12.542 20Q12.542 20.583 12.958 21.021Q13.375 21.458 14 21.458ZM23.042 16.292Q23.625 16.292 24.042 15.875Q24.458 15.458 24.458 14.833Q24.458 14.25 24.042 13.833Q23.625 13.417 23.042 13.417Q22.458 13.417 22.021 13.833Q21.583 14.25 21.583 14.833Q21.583 15.458 22.021 15.875Q22.458 16.292 23.042 16.292ZM17 16.292Q17.542 16.292 18 15.875Q18.458 15.458 18.458 14.833Q18.458 14.25 18 13.833Q17.542 13.417 17 13.417Q16.417 13.417 16 13.833Q15.583 14.25 15.583 14.833Q15.583 15.458 16 15.875Q16.417 16.292 17 16.292ZM17 26.583Q17.542 26.583 18 26.167Q18.458 25.75 18.458 25.167Q18.458 24.542 18 24.125Q17.542 23.708 17 23.708Q16.417 23.708 16 24.125Q15.583 24.542 15.583 25.167Q15.583 25.75 16 26.167Q16.417 26.583 17 26.583ZM18.583 38.75Q18.083 38.75 17.708 38.396Q17.333 38.042 17.333 37.5Q17.333 37 17.667 36.646Q18 36.292 18.5 36.25H18.75V32.833Q16.792 32.583 15 31.854Q13.208 31.125 11.792 29.917L9.375 32.292L9.583 32.5Q9.833 32.833 9.875 33.375Q9.917 33.917 9.542 34.292Q9.167 34.625 8.646 34.646Q8.125 34.667 7.75 34.25L5.75 32.333Q5.375 31.958 5.354 31.396Q5.333 30.833 5.708 30.458Q6.042 30.167 6.562 30.125Q7.083 30.083 7.5 30.417L7.667 30.583L10.083 28.167Q8.833 26.708 8.104 24.958Q7.375 23.208 7.167 21.25H3.75V21.5Q3.708 22 3.354 22.333Q3 22.667 2.5 22.667Q1.958 22.667 1.604 22.292Q1.25 21.917 1.25 21.417V18.583Q1.25 18.083 1.604 17.708Q1.958 17.333 2.5 17.333Q3 17.333 3.354 17.667Q3.708 18 3.75 18.5V18.75H7.167Q7.375 16.792 8.146 15.021Q8.917 13.25 10.083 11.792L7.667 9.375L7.458 9.583Q7.125 9.917 6.583 9.875Q6.042 9.833 5.708 9.5Q5.375 9.167 5.375 8.604Q5.375 8.042 5.75 7.667L7.667 5.75Q8.042 5.333 8.604 5.333Q9.167 5.333 9.542 5.708Q9.875 6.042 9.896 6.583Q9.917 7.125 9.583 7.458L9.375 7.667L11.792 10.042Q13.25 8.875 15 8.125Q16.75 7.375 18.708 7.125V3.75H18.458Q18 3.708 17.667 3.354Q17.333 3 17.333 2.458Q17.333 1.958 17.708 1.583Q18.083 1.208 18.583 1.208H21.417Q21.917 1.208 22.292 1.583Q22.667 1.958 22.667 2.458Q22.667 3 22.333 3.354Q22 3.708 21.5 3.75H21.25V7.125Q23.208 7.375 24.979 8.104Q26.75 8.833 28.208 10.042L30.583 7.667L30.417 7.5Q30.083 7.125 30.104 6.604Q30.125 6.083 30.5 5.708Q30.833 5.375 31.375 5.375Q31.917 5.375 32.292 5.75L34.292 7.75Q34.667 8.125 34.646 8.646Q34.625 9.167 34.292 9.5Q33.917 9.875 33.417 9.854Q32.917 9.833 32.542 9.5L32.375 9.333L29.958 11.75Q31.125 13.25 31.854 15.021Q32.583 16.792 32.833 18.75H36.25V18.5Q36.292 18 36.646 17.667Q37 17.333 37.542 17.333Q38.042 17.333 38.417 17.708Q38.792 18.083 38.792 18.583V21.417Q38.792 21.917 38.417 22.292Q38.042 22.667 37.542 22.667Q37 22.667 36.646 22.333Q36.292 22 36.25 21.5V21.25H32.833Q32.583 23.208 31.875 24.979Q31.167 26.75 29.958 28.208L32.375 30.625L32.542 30.417Q32.917 30.125 33.417 30.125Q33.917 30.125 34.25 30.458Q34.625 30.833 34.646 31.375Q34.667 31.917 34.292 32.292L32.333 34.208Q31.958 34.583 31.396 34.583Q30.833 34.583 30.5 34.208Q30.167 33.875 30.146 33.375Q30.125 32.875 30.375 32.542L30.625 32.333L28.208 29.917Q26.708 31.167 24.958 31.896Q23.208 32.625 21.25 32.833V36.25H21.5Q22 36.292 22.333 36.646Q22.667 37 22.667 37.5Q22.667 38.042 22.292 38.396Q21.917 38.75 21.417 38.75ZM20 21.458Q20.583 21.458 21.021 21.021Q21.458 20.583 21.458 20Q21.458 19.417 21.021 18.979Q20.583 18.542 20 18.542Q19.417 18.542 18.979 18.979Q18.542 19.417 18.542 20Q18.542 20.583 18.979 21.021Q19.417 21.458 20 21.458ZM26 21.458Q26.667 21.458 27.062 21.021Q27.458 20.583 27.458 20Q27.458 19.417 27.062 18.979Q26.667 18.542 26 18.542Q25.417 18.542 25 18.979Q24.583 19.417 24.583 20Q24.583 20.583 25 21.021Q25.417 21.458 26 21.458ZM23.042 26.583Q23.625 26.583 24.042 26.167Q24.458 25.75 24.458 25.167Q24.458 24.542 24.042 24.125Q23.625 23.708 23.042 23.708Q22.458 23.708 22.021 24.125Q21.583 24.542 21.583 25.167Q21.583 25.75 22.021 26.167Q22.458 26.583 23.042 26.583Z"/></svg>
